%
(1001)
(T1 D=6 CR=0 - ZMIN=-1 - flat end mill)
N10 G90 G94
N20 G17
N30 G21
(When using Fusion for Personal Use, the feedrate of rapid)
(moves is reduced to match the feedrate of cutting moves,)
(which can increase machining time. Unrestricted rapid moves)
(are available with a Fusion Subscription.)
N40 G0 Z4
N50 G0 X0 Y0

(?1)
N60 T1 M6
N70 S10000 M3
N80 G54
N90 M8
N100 G0 X105.898 Y0.966
N110 G43 Z4
N120 G1 Z2 F500
N130 Z-0.4 F333.3
N140 G18 G3 X105.298 Z-1 I-0.6 K0 F400
N150 G1 X105.01
N160 X-3.01 F500
N170 G17 G2 Y4.892 I0 J1.963
N180 G1 X105.01
N190 G3 Y8.817 I0 J1.963
N200 G1 X-3.01
N210 G2 Y12.743 I0 J1.963
N220 G1 X105.01
N230 G3 Y16.669 I0 J1.963
N240 G1 X-3.01
N250 G2 Y20.595 I0 J1.963
N260 G1 X105.01
N270 G3 Y24.52 I0 J1.963
N280 G1 X-3.01
N290 G2 Y28.446 I0 J1.963
N300 G1 X105.01
N310 G3 Y32.372 I0 J1.963
N320 G1 X-3.01
N330 G2 Y36.298 I0 J1.963
N340 G1 X105.01
N350 G3 Y40.223 I0 J1.963
N360 G1 X-3.01
N370 G2 Y44.149 I0 J1.963
N380 G1 X105.01
N390 G3 Y48.075 I0 J1.963
N400 G1 X-3.01
N410 G2 Y52.001 I0 J1.963
N420 G1 X105.01
N430 G3 Y55.927 I0 J1.963
N440 G1 X-3.01
N450 G2 Y59.852 I0 J1.963
N460 G1 X105.01
N470 G3 Y63.778 I0 J1.963
N480 G1 X-3.01
N490 G2 Y67.704 I0 J1.963
N500 G1 X105.01
N510 G3 Y71.63 I0 J1.963
N520 G1 X-3.01
N530 G2 Y75.555 I0 J1.963
N540 G1 X105.01
N550 G3 Y79.481 I0 J1.963
N560 G1 X-3.01
N570 G2 Y83.407 I0 J1.963
N580 G1 X105.01
N590 G3 Y87.333 I0 J1.963
N600 G1 X-3.01
N610 G2 Y91.258 I0 J1.963
N620 G1 X105.01
N630 G3 Y95.184 I0 J1.963
N640 G1 X-3.01
N650 G2 Y99.11 I0 J1.963
N660 G1 X105.01
N670 G18 G2 X105.61 Z-0.4 I0 K0.6 F400
N680 G1 Z4 F500
N690 G17
N700 M9
N710 G0 Z4
N720 G0 X0 Y0
N730 M30
%
